X: 35412
T: Round The
R: hornpipe
M: 4/4
K: Aminor
|:A2E2 cBAE|GABc d2 Gd|efec dedB|cdcA BG G2|
A2E2 cBAE|GABc d2 Gd|efec dedB|A4 A4:|
|:efec e2e2|dedB d2d2|cdcA BcBG|ABcd efec|
efec e2e2|dedB d2d2|cdcA BcBG|A4 A4:|

